local/share/icons/dracula-icons-main/scalable/mimetypes/text-x-cpp.svg

<?xml version="1.0" encoding="UTF-8"?>
<svg xmlns="http://www.w3.org/2000/svg" xmlns:xlink="http://www.w3.org/1999/xlink" width="64" height="64" viewBox="0 0 64 64">
<defs>
<filter id="filter-remove-color" x="0%" y="0%" width="100%" height="100%">
<feColorMatrix color-interpolation-filters="sRGB" values="0 0 0 0 1 0 0 0 0 1 0 0 0 0 1 0 0 0 1 0" />
</filter>
<mask id="mask-0">
<g filter="url(#filter-remove-color)">
<rect x="-6.4" y="-6.4" width="76.8" height="76.8" fill="rgb(0%, 0%, 0%)" fill-opacity="0.1"/>
</g>
</mask>
<linearGradient id="linear-pattern-0" gradientUnits="userSpaceOnUse" x1="49.570999" y1="52.714001" x2="51.714001" y2="54.856998" gradientTransform="matrix(0.617345, 0, 0, 0.617345, -18.167916, -19.050025)">
<stop offset="0" stop-color="rgb(0%, 0%, 0%)" stop-opacity="1"/>
<stop offset="1" stop-color="rgb(0%, 0%, 0%)" stop-opacity="0"/>
</linearGradient>
<clipPath id="clip-0">
<rect x="0" y="0" width="17" height="17"/>
</clipPath>
<g id="source-16684" clip-path="url(#clip-0)">
<path fill-rule="evenodd" fill="url(#linear-pattern-0)" d="M 14.816406 12.171875 L 11.113281 15.875 L 13.492188 15.875 C 14.226562 15.875 14.816406 15.285156 14.816406 14.550781 Z M 14.816406 12.171875 "/>
</g>
</defs>
<path fill-rule="nonzero" fill="rgb(95.686275%, 95.686275%, 95.686275%)" fill-opacity="1" d="M 3.441406 1.058594 L 13.492188 1.058594 C 14.222656 1.058594 14.816406 1.652344 14.816406 2.382812 L 14.816406 14.550781 C 14.816406 15.28125 14.222656 15.875 13.492188 15.875 L 3.441406 15.875 C 2.707031 15.875 2.117188 15.28125 2.117188 14.550781 L 2.117188 2.382812 C 2.117188 1.652344 2.707031 1.058594 3.441406 1.058594 Z M 3.441406 1.058594 "/>
<g mask="url(#mask-0)">
<use xlink:href="#source-16684"/>
</g>
<path fill-rule="nonzero" fill="rgb(16.862745%, 53.72549%, 56.078431%)" fill-opacity="1" d="M 5.292969 6.613281 L 6.351562 6.613281 L 6.351562 7.144531 L 5.292969 7.144531 C 5.292969 7.144531 4.761719 7.144531 4.761719 7.671875 L 4.761719 9.261719 C 4.761719 9.789062 5.292969 9.789062 5.292969 9.789062 L 6.351562 9.789062 L 6.351562 10.320312 L 5.292969 10.320312 C 5.292969 10.320312 4.234375 10.320312 4.234375 9.261719 L 4.234375 7.671875 C 4.234375 6.613281 5.292969 6.613281 5.292969 6.613281 Z M 7.9375 7.144531 L 8.464844 7.144531 L 8.464844 8.203125 L 9.523438 8.203125 L 9.523438 8.730469 L 8.464844 8.730469 L 8.464844 9.789062 L 7.9375 9.789062 L 7.9375 8.730469 L 6.878906 8.730469 L 6.878906 8.203125 L 7.9375 8.203125 Z M 11.113281 7.144531 L 11.640625 7.144531 L 11.640625 8.203125 L 12.699219 8.203125 L 12.699219 8.730469 L 11.640625 8.730469 L 11.640625 9.789062 L 11.113281 9.789062 L 11.113281 8.730469 L 10.054688 8.730469 L 10.054688 8.203125 L 11.113281 8.203125 Z M 11.113281 7.144531 "/>
</svg>

<svg width="64" height="64" version="1.1" viewBox="0 0 16.933 16.933" xmlns="http://www.w3.org/2000/svg">
 <defs>
  <linearGradient id="a" x1="49.571" x2="51.714" y1="52.714" y2="54.857" gradientTransform="matrix(2.3333,0,0,2.3333,-68.667,-72.001)" gradientUnits="userSpaceOnUse">
   <stop offset="0"/>
   <stop stop-opacity="0" offset="1"/>
  </linearGradient>
 </defs>
 <g transform="scale(.26458)">
  <rect x="8" y="4" width="48" height="56" ry="5" fill="#f4f4f4" style="paint-order:stroke fill markers"/>
  <path d="m56 46-14 14h9c2.77 0 5-2.23 5-5z" fill="url(#a)" fill-rule="evenodd" opacity=".1" stroke-width="8.8191" style="paint-order:stroke fill markers"/>
 </g>
 <path d="m5.2916 6.6145h1.0583v0.52916h-1.0583s-0.52916 0-0.52916 0.52916v1.5875c0 0.52916 0.52916 0.52916 0.52916 0.52916h1.0583v0.52916h-1.0583s-1.0583 0-1.0583-1.0583v-1.5875c0-1.0583 1.0583-1.0583 1.0583-1.0583zm2.6458 0.52916h0.52916v1.0583h1.0583v0.52916h-1.0583v1.0583h-0.52916v-1.0583h-1.0583v-0.52916h1.0583zm3.1749 0h0.52916v1.0583h1.0583v0.52916h-1.0583v1.0583h-0.52916v-1.0583h-1.0583v-0.52916h1.0583z" color="#000000" fill="#2b898f" style="text-decoration-line:none;text-indent:0;text-transform:none"/>
</svg>
